img/svg/main-menu-icons/file-ico.svg

<svg width="26" height="26" viewBox="0 0 26 26" fill="none" xmlns="http://www.w3.org/2000/svg">
<path d="M21.5802 16.8594V5.63672C21.5802 4.51675 20.6691 3.60547 19.5489 3.60547H13.1562V10.8672C13.1562 12.5473 11.7895 13.9141 10.1094 13.9141C8.42923 13.9141 7.0625 12.5473 7.0625 10.8672V6.5C7.0625 5.93903 7.51715 5.48438 8.07812 5.48438C8.6391 5.48438 9.09375 5.93903 9.09375 6.5V10.8672C9.09375 11.4272 9.54939 11.8828 10.1094 11.8828C10.6694 11.8828 11.125 11.4272 11.125 10.8672V3.04688C11.125 2.48689 10.6694 2.03125 10.1094 2.03125C9.64064 2.03125 9.22427 2.36192 9.11954 2.81737C9.00568 3.31308 8.54646 3.63879 8.05432 3.6015C8.02873 3.60349 8.00294 3.60547 7.97656 3.60547H7.0625C5.94254 3.60547 5.03125 4.51675 5.03125 5.63672V21.9375C5.03125 23.0575 5.94254 23.9688 7.0625 23.9688H19.5491C20.6691 23.9688 21.5804 23.0575 21.5804 21.9375C21.5804 21.3765 22.035 20.9219 22.596 20.9219C23.1568 20.9219 23.6116 21.3765 23.6116 21.9375C23.6116 24.1776 21.7891 26 19.5491 26H7.0625C4.82237 26 3 24.1776 3 21.9375V5.63672C3 3.39659 4.82237 1.57422 7.0625 1.57422H7.43979C7.96307 0.618301 8.96997 0 10.1094 0C11.2555 0 12.2555 0.636353 12.7756 1.57422H19.5489C21.7891 1.57422 23.6114 3.39659 23.6114 5.63672V16.8594C23.6114 17.4203 23.1568 17.875 22.5958 17.875C22.035 17.875 21.5802 17.4203 21.5802 16.8594V16.8594ZM8.07812 19.9062C7.51715 19.9062 7.0625 20.3609 7.0625 20.9219C7.0625 21.4828 7.51715 21.9375 8.07812 21.9375H15.4414C16.0024 21.9375 16.457 21.4828 16.457 20.9219C16.457 20.3609 16.0024 19.9062 15.4414 19.9062H8.07812ZM19.5039 16.9102C19.5039 16.3492 19.0493 15.8945 18.4883 15.8945H8.07812C7.51715 15.8945 7.0625 16.3492 7.0625 16.9102C7.0625 17.4711 7.51715 17.9258 8.07812 17.9258H18.4883C19.0493 17.9258 19.5039 17.4711 19.5039 16.9102ZM18.4883 11.9336H16.1523C15.5914 11.9336 15.1367 12.3882 15.1367 12.9492C15.1367 13.5102 15.5914 13.9648 16.1523 13.9648H18.4883C19.0493 13.9648 19.5039 13.5102 19.5039 12.9492C19.5039 12.3882 19.0493 11.9336 18.4883 11.9336ZM18.4883 7.92188H16.1523C15.5914 7.92188 15.1367 8.37653 15.1367 8.9375C15.1367 9.49847 15.5914 9.95312 16.1523 9.95312H18.4883C19.0493 9.95312 19.5039 9.49847 19.5039 8.9375C19.5039 8.37653 19.0493 7.92188 18.4883 7.92188Z" fill="#E0E0E0"/>
</svg>

<svg width="26" height="26" fill="none" xmlns="http://www.w3.org/2000/svg"><path d="M21.58 16.86V5.636c0-1.12-.91-2.032-2.031-2.032h-6.393v7.262a3.05 3.05 0 01-3.047 3.047 3.05 3.05 0 01-3.046-3.047V6.5a1.016 1.016 0 112.03 0v4.367a1.017 1.017 0 002.032 0v-7.82c0-.56-.456-1.016-1.016-1.016-.468 0-.885.33-.99.786a1.015 1.015 0 01-1.065.784.997.997 0 01-.077.004h-.915c-1.12 0-2.03.912-2.03 2.032v16.3c0 1.12.91 2.032 2.03 2.032H19.55c1.12 0 2.031-.912 2.031-2.032a1.015 1.015 0 112.032 0A4.067 4.067 0 0119.549 26H7.063A4.067 4.067 0 013 21.937v-16.3a4.067 4.067 0 014.063-4.063h.377a3.049 3.049 0 015.336 0h6.773a4.067 4.067 0 014.062 4.063v11.222a1.016 1.016 0 11-2.03 0zM8.078 19.905a1.016 1.016 0 100 2.032h7.363a1.016 1.016 0 100-2.032H8.078zm11.426-2.996c0-.56-.455-1.015-1.016-1.015H8.078a1.016 1.016 0 100 2.03h10.41c.561 0 1.016-.454 1.016-1.015zm-1.016-4.976h-2.336a1.016 1.016 0 100 2.03h2.336a1.015 1.015 0 100-2.03zm0-4.012h-2.336a1.016 1.016 0 100 2.031h2.336a1.016 1.016 0 100-2.031z" fill="#E0E0E0"/></svg>
